packages/icons/src/components/Logo/assets/dark/jupyterhub.svg

<svg width="20" height="20" viewBox="0 0 20 20" fill="none" xmlns="http://www.w3.org/2000/svg">
<g>
<path d="M17.0508 1.13282C17.0664 1.3711 17.0078 1.60938 16.8867 1.81641C16.7656 2.02345 16.5859 2.18751 16.3711 2.29298C16.1562 2.39845 15.9141 2.4336 15.6758 2.40235C15.4375 2.3672 15.2148 2.26563 15.0391 2.10548C14.8594 1.94532 14.7344 1.73438 14.6758 1.50391C14.6172 1.26954 14.6289 1.02735 14.7109 0.800789C14.793 0.574226 14.9375 0.378914 15.1328 0.234383C15.3281 0.0898515 15.5586 0.0117265 15.7969 7.7202e-06C15.9531 -0.00780478 16.1094 0.0156327 16.2578 0.066414C16.4063 0.117195 16.543 0.199226 16.6602 0.304695C16.7773 0.410164 16.8711 0.53907 16.9375 0.679695C17.0039 0.824226 17.043 0.97657 17.0508 1.13282Z" fill="white"/>
<path d="M5.59765 18.3867C5.61719 18.6875 5.54687 18.9883 5.39453 19.25C5.24219 19.5117 5.01562 19.7187 4.74219 19.8515C4.46875 19.9844 4.16406 20.0312 3.86719 19.9883C3.5664 19.9453 3.28906 19.8164 3.0625 19.6133C2.83984 19.4101 2.67969 19.1484 2.60547 18.8555C2.53125 18.5625 2.54687 18.2539 2.64844 17.9687C2.75 17.6836 2.93359 17.4375 3.17578 17.2578C3.41797 17.0781 3.71094 16.9765 4.01172 16.9609C4.21094 16.9492 4.40625 16.9805 4.59375 17.043C4.78125 17.1094 4.95312 17.2109 5.09765 17.3437C5.24609 17.4765 5.36328 17.6367 5.44922 17.8164C5.53906 17.9922 5.58984 18.1875 5.59765 18.3867Z" fill="white"/>
<path d="M2.89845 3.64825C2.72657 3.65216 2.5547 3.60528 2.41017 3.51544C2.26564 3.4256 2.14845 3.28888 2.07814 3.13263C2.00782 2.97638 1.98439 2.8006 2.01173 2.62872C2.03907 2.45685 2.1172 2.3006 2.23439 2.1756C2.35157 2.0506 2.50392 1.96075 2.67189 1.92169C2.83986 1.88263 3.01564 1.89435 3.1797 1.95294C3.33986 2.01153 3.48048 2.12091 3.58204 2.25763C3.68361 2.39825 3.7422 2.56231 3.75001 2.7381C3.75782 2.97247 3.67189 3.19903 3.51173 3.367C3.35157 3.53888 3.12892 3.63653 2.89845 3.64825Z" fill="white"/>
<path d="M10.0117 15.0781C6.80859 15.0781 3.99219 13.9297 2.53516 12.2305C3.10156 13.7578 4.12109 15.0781 5.45703 16.0078C6.79297 16.9375 8.38281 17.4375 10.0117 17.4375C11.6406 17.4375 13.2305 16.9375 14.5664 16.0078C15.9023 15.0781 16.9219 13.7578 17.4883 12.2305C16.0352 13.9297 13.2305 15.0781 10.0117 15.0781ZM10.0117 4.03516C13.2148 4.03516 16.0313 5.18359 17.4883 6.88281C16.9219 5.35547 15.9023 4.03516 14.5664 3.10547C13.2305 2.17578 11.6406 1.67578 10.0117 1.67578C8.38281 1.67578 6.79297 2.17578 5.45703 3.10547C4.12109 4.03516 3.10156 5.35547 2.53516 6.88281C3.98828 5.17969 6.79297 4.03516 10.0117 4.03516Z" fill="white"/>
<path d="M2.16406 10.457C2.16406 11.082 2.11328 11.2813 1.98438 11.4336C1.83984 11.5625 1.65625 11.6328 1.46484 11.6328L1.51562 11.9883C1.8125 11.9922 2.10156 11.8867 2.32812 11.6914C2.44922 11.543 2.53906 11.3711 2.59375 11.1875C2.64844 11.0039 2.66406 10.8125 2.64062 10.6211V8.26563H2.16406V10.457ZM5.72266 10.1758C5.72266 10.4414 5.72266 10.6797 5.74219 10.8867H5.32031L5.29297 10.4648C5.20312 10.6133 5.07812 10.7383 4.92578 10.8242C4.77344 10.9102 4.60156 10.9531 4.42969 10.9492C4.01562 10.9492 3.52344 10.7266 3.52344 9.80859V8.28906H4V9.71484C4 10.2109 4.15234 10.5391 4.58203 10.5391C4.67188 10.5391 4.75781 10.5234 4.83984 10.4883C4.92188 10.4531 4.99609 10.4062 5.05859 10.3437C5.12109 10.2812 5.17187 10.207 5.20312 10.125C5.23828 10.043 5.25391 9.95313 5.25391 9.86719V8.27344H5.73047V10.1641L5.72266 10.1758ZM6.625 9.13672C6.625 8.80469 6.625 8.53516 6.60547 8.28906H7.03125L7.05078 8.73438C7.14566 8.5724 7.28358 8.43989 7.44922 8.35156C7.61328 8.26172 7.80078 8.21875 7.98438 8.22656C8.61719 8.22656 9.09375 8.75781 9.09375 9.54687C9.09375 10.4805 8.51953 10.9414 7.90234 10.9414C7.74219 10.9492 7.58594 10.9141 7.44531 10.8438C7.30469 10.7734 7.18359 10.6641 7.09375 10.5313V11.957H6.625V9.13672ZM7.09375 9.83203C7.09375 9.89844 7.10156 9.96094 7.11328 10.0234C7.15234 10.1797 7.24609 10.3203 7.375 10.4219C7.50391 10.5234 7.66406 10.5742 7.82422 10.5742C8.32812 10.5742 8.62109 10.1641 8.62109 9.57031C8.62109 9.05078 8.34375 8.60547 7.83984 8.60547C7.64062 8.62109 7.45703 8.71094 7.31641 8.85156C7.17969 8.99609 7.09766 9.18359 7.08984 9.38281V9.83203H7.09375ZM9.94531 8.28516L10.5195 9.82031C10.5781 9.99219 10.6445 10.1992 10.6875 10.3516C10.7383 10.1953 10.7891 9.99609 10.8555 9.80859L11.375 8.28516H11.875L11.1641 10.1367C10.8086 11.0273 10.5898 11.4844 10.2617 11.7656C10.0977 11.918 9.89453 12.0234 9.67969 12.0703L9.5625 11.6719C9.71484 11.6211 9.85547 11.543 9.98047 11.4414C10.1523 11.3008 10.293 11.1211 10.3828 10.9141C10.4023 10.8789 10.4141 10.8398 10.4219 10.8008C10.418 10.7578 10.4062 10.7148 10.3906 10.6758L9.42188 8.28125H9.94141L9.94531 8.28516ZM13.1445 7.53906V8.28516H13.8281V8.64062H13.1445V10.043C13.1445 10.3633 13.2383 10.5469 13.5 10.5469C13.5938 10.5469 13.6875 10.5391 13.7773 10.5156L13.7969 10.8711C13.6602 10.918 13.5156 10.9414 13.375 10.9336C13.2812 10.9414 13.1836 10.9258 13.0938 10.8906C13.0039 10.8555 12.9258 10.8047 12.8555 10.7344C12.7109 10.5391 12.6445 10.2969 12.6719 10.0586V8.63281H12.2656V8.27734H12.6797V7.64453L13.1445 7.53906ZM14.707 9.67188C14.6992 9.79297 14.7148 9.91406 14.7578 10.0273C14.8008 10.1406 14.8672 10.2461 14.9531 10.3281C15.0391 10.4141 15.1406 10.4805 15.2539 10.5234C15.3672 10.5664 15.4883 10.582 15.6094 10.5742C15.8555 10.5781 16.0977 10.5352 16.3203 10.4375L16.4023 10.793C16.125 10.9062 15.8281 10.9609 15.5312 10.9531C15.3555 10.9648 15.1836 10.9375 15.0195 10.8789C14.8555 10.8164 14.707 10.7187 14.5859 10.5977C14.4648 10.4727 14.3711 10.3242 14.3086 10.1602C14.25 9.99609 14.2266 9.82031 14.2422 9.64844C14.2422 8.86328 14.707 8.24609 15.4688 8.24609C16.3242 8.24609 16.5352 8.99219 16.5352 9.47266C16.5391 9.54688 16.5391 9.62109 16.5352 9.69531H14.6953L14.707 9.67188ZM16.1016 9.31641C16.1172 9.22266 16.1094 9.125 16.082 9.03125C16.0547 8.9375 16.0078 8.85156 15.9453 8.78125C15.8828 8.70703 15.8047 8.64844 15.7188 8.60937C15.6328 8.57031 15.5352 8.54688 15.4414 8.54688C15.2461 8.5625 15.0625 8.64844 14.9258 8.78906C14.7891 8.92969 14.7148 9.11719 14.7109 9.31641H16.1016ZM17.2617 9.09766C17.2617 8.79297 17.2617 8.52734 17.2422 8.28516H17.668V8.79297H17.6875C17.7305 8.63672 17.8242 8.49609 17.9531 8.39453C18.082 8.29297 18.2383 8.23438 18.3984 8.22266C18.4414 8.21484 18.4883 8.21484 18.5352 8.22266V8.66797C18.4805 8.66016 18.4258 8.66016 18.3711 8.66797C18.2109 8.67578 18.0547 8.73828 17.9375 8.85156C17.8203 8.96484 17.7461 9.11328 17.7344 9.27344C17.7227 9.34766 17.7148 9.42188 17.7148 9.49609V10.8828H17.2461V9.10156L17.2617 9.09766Z" fill="white"/>
</g>
<defs>
<clipPath id="clip0_378_482">
<rect width="20" height="20" fill="white"/>
</clipPath>
</defs>
</svg>

<svg xmlns="http://www.w3.org/2000/svg" width="20" height="20" fill="none" viewBox="0 0 20 20">
    <path fill="#fff" d="M17.05 1.133c.016.238-.042.476-.163.683a1.22 1.22 0 0 1-1.211.586A1.203 1.203 0 0 1 14.71.801a1.216 1.216 0 0 1 1.95-.496 1.2 1.2 0 0 1 .39.828M5.598 18.387a1.52 1.52 0 1 1-2.95-.418 1.52 1.52 0 0 1 1.364-1.008c.199-.012.394.02.582.082a1.5 1.5 0 0 1 .855.773c.09.176.14.372.149.57m-2.7-14.738a.9.9 0 0 1-.488-.133.878.878 0 0 1 .262-1.593.9.9 0 0 1 .508.03.88.88 0 0 1 .57.785.87.87 0 0 1-.238.63.9.9 0 0 1-.614.281m7.114 11.43c-3.203 0-6.02-1.148-7.477-2.847a7.976 7.976 0 0 0 12.031 3.777 8 8 0 0 0 2.922-3.777c-1.453 1.699-4.257 2.847-7.476 2.847m0-11.043c3.203 0 6.02 1.149 7.476 2.848A7.976 7.976 0 0 0 5.457 3.106a8 8 0 0 0-2.922 3.777c1.453-1.703 4.258-2.848 7.477-2.848m-7.848 6.422c0 .625-.05.824-.18.977a.78.78 0 0 1-.52.199l.052.355a1.22 1.22 0 0 0 .812-.297c.121-.148.211-.32.266-.504q.081-.276.047-.566V8.266h-.477zm3.559-.281c0 .265 0 .504.02.71H5.32l-.027-.421a1.03 1.03 0 0 1-.367.36.97.97 0 0 1-.496.124c-.414 0-.907-.222-.907-1.14v-1.52H4v1.426c0 .496.152.824.582.824q.135 0 .258-.05a.7.7 0 0 0 .219-.145.6.6 0 0 0 .144-.219.7.7 0 0 0 .05-.258V8.273h.477v1.891zm.902-1.04c0-.331 0-.6-.02-.847h.426l.02.445c.095-.162.233-.294.398-.382a1.03 1.03 0 0 1 .535-.125c.633 0 1.11.53 1.11 1.32 0 .933-.574 1.394-1.192 1.394a.92.92 0 0 1-.808-.41v1.426h-.469zm.469.696q.001.099.02.191a.726.726 0 0 0 .71.55c.504.001.797-.409.797-1.003 0-.52-.277-.965-.781-.965a.83.83 0 0 0-.524.247.82.82 0 0 0-.226.53v.45zm2.851-1.547.575 1.535c.058.172.125.38.168.532.05-.157.101-.356.167-.543l.52-1.524h.5l-.71 1.852c-.356.89-.575 1.347-.903 1.629a1.25 1.25 0 0 1-.582.304l-.117-.398q.229-.077.417-.23a1.4 1.4 0 0 0 .403-.528.4.4 0 0 0 .039-.113.5.5 0 0 0-.031-.125L9.42 8.28h.52zm3.2-.746v.746h.683v.356h-.683v1.402c0 .32.093.504.355.504q.142.002.277-.031l.02.355a1.1 1.1 0 0 1-.422.063.68.68 0 0 1-.52-.2.96.96 0 0 1-.183-.675V8.633h-.406v-.356h.414v-.632zm1.562 2.133a.846.846 0 0 0 .902.902c.246.004.489-.039.711-.136l.082.355a2.2 2.2 0 0 1-.87.16 1.3 1.3 0 0 1-.512-.074 1.2 1.2 0 0 1-.434-.281 1.3 1.3 0 0 1-.277-.438 1.2 1.2 0 0 1-.067-.512c0-.785.465-1.402 1.227-1.402.855 0 1.066.746 1.066 1.227a2 2 0 0 1 0 .222h-1.84zm1.395-.356a.64.64 0 0 0-.02-.285.65.65 0 0 0-.137-.25.65.65 0 0 0-.226-.172.7.7 0 0 0-.278-.062.8.8 0 0 0-.515.242.77.77 0 0 0-.215.527zm1.16-.218c0-.305 0-.57-.02-.813h.426v.508h.02a.77.77 0 0 1 .265-.398.8.8 0 0 1 .445-.172.4.4 0 0 1 .137 0v.445a.6.6 0 0 0-.164 0 .67.67 0 0 0-.433.184.66.66 0 0 0-.204.421q-.018.112-.02.223v1.387h-.468V9.102z"/>
</svg>
